icons/mobile/20/svg/warning-fill-20.svg

<svg width="20" height="20" viewBox="0 0 20 20" fill="none" xmlns="http://www.w3.org/2000/svg">
<path fill-rule="evenodd" clip-rule="evenodd" d="M9.97452 3C10.9993 3.00019 12.0247 3.51419 12.5966 4.54199L16.9833 12.4297C18.0571 14.3616 16.7438 16.7706 14.537 16.8838C12.9573 16.9648 11.4473 17 10.0165 17C8.45263 17 6.94576 16.9578 5.50186 16.8838C3.28419 16.7695 1.94582 14.3872 3.01456 12.4414L7.34464 4.55566C7.9147 3.51903 8.9447 3 9.97452 3ZM9.99991 12.25C9.51669 12.25 9.12491 12.6418 9.12491 13.125C9.12491 13.6082 9.51669 14 9.99991 14C10.4832 14 10.8749 13.6082 10.8749 13.125C10.8749 12.6418 10.4832 12.25 9.99991 12.25ZM9.99991 7C9.58594 7.00003 9.24991 7.33602 9.24991 7.75V10.25C9.24991 10.664 9.58594 11 9.99991 11C10.4139 11 10.7499 10.664 10.7499 10.25V7.75C10.7499 7.336 10.4139 7 9.99991 7Z" fill="black"/>
</svg>

<!-- This Source Code Form is subject to the terms of the Mozilla Public
   - License, v. 2.0. If a copy of the MPL was not distributed with this
   - file, You can obtain one at http://mozilla.org/MPL/2.0/. -->
<svg xmlns="http://www.w3.org/2000/svg" width="20" height="20" fill="none" viewBox="0 0 20 20">
    <path fill="#000" fill-rule="evenodd" d="M9.975 3c1.024 0 2.05.514 2.622 1.542l4.386 7.888c1.074 1.932-.24 4.34-2.446 4.454a88 88 0 0 1-9.035 0c-2.218-.114-3.556-2.497-2.487-4.443l4.33-7.885A2.97 2.97 0 0 1 9.975 3M10 12.25A.875.875 0 1 0 10 14a.875.875 0 0 0 0-1.75M10 7a.75.75 0 0 0-.75.75v2.5a.75.75 0 0 0 1.5 0v-2.5A.75.75 0 0 0 10 7" clip-rule="evenodd" />
</svg>
